!!!OTL: HOPSA MEI LORCHE DREH DICH MAL DRUM
!!!ARE: Europa, Mitteleuropa, Deutschland, Hessen, Kreis Wetzlar
!!!SCT: E1001A
!!!YEM: Copyright 1995, estate of Helmut Schaffrath.
**kern
*ICvox
*Ivox
*M3/8
*k[f#]
*G:
=1
{8b
8b
8b
=2
4b
8dd
=3
8dd
8cc
8cc
=4
4b
8r}
=5
{8b
8b
8b
=6
8dd
8cc
8cc
=7
8a
8cc
8cc
=8
8cc
8b
8b}
=9
{8b
8b
8b
=10
4b
8dd
=11
8dd
8cc
8cc
=12
4b
8r}
==
!!!AGN: Tanz - Lied, Hopps - Walzer
!!!ONB: ESAC (Essen Associative Code) Database: ERK3
!!!AMT: simple triple
!!!AIN: vox
!!!EED: Helmut Schaffrath
!!!EEV: 1.0
*-
